web/static/icons/icon-anime.svg

<svg xmlns="http://www.w3.org/2000/svg" viewBox="0 0 24 24" fill="#f09199"><path d="M13.112 6l2.888-3.375-.781-.625-3.219 3.75-3.219-3.75-.781.625 2.888 3.375h-10.888v16h24v-16h-10.888zm7.888 14h-18v-12h18v12zm-12-2v-8l7 4-7 4z"/></svg>

<svg xmlns="http://www.w3.org/2000/svg" viewBox="0 0 24 24" fill="#f09199"><path d="M13.112 6L16 2.625 15.219 2 12 5.75 8.781 2 8 2.625 10.888 6H0v16h24V6H13.112zM21 20H3V8h18v12zM8 11.5a1.8 1.8 0 1 0 0 3.6 1.8 1.8 0 0 0 0-3.6zm8 0a1.8 1.8 0 1 0 0 3.6 1.8 1.8 0 0 0 0-3.6z"/></svg>
